src/4-icons/switch.svg

<svg width="260" height="260" viewBox="0 0 260 260" fill="none" xmlns="http://www.w3.org/2000/svg">
<g opacity="0.9">
<path d="M76.5704 85.8008C62.2186 85.8008 50.5439 97.4754 50.5439 111.827V148.175C50.5439 162.527 62.2186 174.201 76.5704 174.201H183.404C197.756 174.201 209.429 162.527 209.429 148.175V111.827C209.429 97.4754 197.756 85.8008 183.404 85.8008H76.5693H76.5704ZM137.047 148.174C137.047 156.754 130.027 163.801 121.42 163.801H76.5704C67.9904 163.801 60.9439 156.781 60.9439 148.174V111.826C60.9439 103.246 67.9639 96.1998 76.5704 96.1998H121.42C130 96.1998 137.047 103.22 137.047 111.826V148.174Z" fill="black"/>
</g>
</svg>

<svg width="260" height="260" fill="none" xmlns="http://www.w3.org/2000/svg"><path d="M76.57 85.8c-14.351 0-26.026 11.675-26.026 26.027v36.348c0 14.352 11.675 26.026 26.026 26.026h106.834c14.352 0 26.025-11.674 26.025-26.026v-36.348c0-14.352-11.673-26.026-26.025-26.026H76.569h.001Zm60.477 62.374c0 8.58-7.02 15.627-15.627 15.627H76.57c-8.58 0-15.626-7.02-15.626-15.627v-36.348c0-8.58 7.02-15.626 15.626-15.626h44.85c8.58 0 15.627 7.02 15.627 15.626v36.348Z" fill="#000" opacity=".9"/></svg>
